X: 614
T: Granny Will Your Dog Bite?
B: jims roots
M:4/4
L:1/8
Q: 1/4=100
K:A
V:1 
|:EF | "A"A=GEC A,B,CA, | "D"DEFD "A"E2 E=G | "D"FEDF "A"EDCA | "D"DEFD "A"E2 FG |
"A"A2A2 A,B,CA, | "D"DEFD "A"A2 cd | e2ef edcA | "E"BAGB "A"A2 :|
|: "A"de | efed cAcd | "G"eAfA =gAfg | "A"efed cAcd | "E"eagb "A"a3f |
efed cAcd | "G"edef =g2 ff |"A"efad cBAc | "E"BAGB "A"A2 :|
% abcbook-tune_id 6298c25d207bc38f2bf2ec3f


% abcbook-boost 0
% abcbook-tablature 
% abcbook-transpose 
% abcbook-lastupdated 1654178398388
% abcbook-soundfonts 
% abcbook-repeats 1


